Sources/FrostedUI/Resources/Icons.xcassets/arrowDownRight16.imageset/arrow-down-right-16.svg

<svg width="16" height="16" viewBox="0 0 16 16" fill="none" xmlns="http://www.w3.org/2000/svg" data-fui-icon="true">
  <path
    d="M3.05078 3.05078C3.34367 2.75789 3.81844 2.75789 4.11133 3.05078L11.6211 10.5605L11.4932 5.54492C11.4825 5.13088 11.8096 4.78606 12.2236 4.77539C12.6375 4.76493 12.9815 5.09193 12.9922 5.50586L13.1689 12.4004C13.1741 12.6058 13.0955 12.8049 12.9502 12.9502C12.8049 13.0955 12.6058 13.1741 12.4004 13.1689L5.50586 12.9922C5.09192 12.9815 4.76492 12.6376 4.77539 12.2236C4.78606 11.8096 5.13088 11.4825 5.54492 11.4932L10.5605 11.6211L3.05078 4.11133C2.75789 3.81843 2.75789 3.34367 3.05078 3.05078Z"
    fill="currentColor"
  />
</svg>

<svg xmlns="http://www.w3.org/2000/svg" width="16" height="16" fill="none" data-fui-icon="true" viewBox="0 0 16 16"><path fill="currentColor" d="M3.05 3.05a.75.75 0 0 1 1.061 0l7.51 7.51-.128-5.015a.75.75 0 0 1 1.5-.04l.176 6.895a.75.75 0 0 1-.769.769l-6.894-.177a.75.75 0 1 1 .039-1.499l5.015.128-7.51-7.51a.75.75 0 0 1 0-1.06"/></svg>
